!!!SOCIAL_FUNCTION:	songs used in the treatment of the sick
!!!PDT:	1929
!!!OTL: No_77_His_Heart_is_Almost_Covered_with_Night.krn
!!!REG: Southwest
!!!LANG: Non-Tone
!!!LING_GROUP: Uto-Aztecan
**kern
*staff1
=1-
*clefF4
*k[]
*M2/4
8G\L
8G\J
8e\L
8e\J
=2
4.e\
8c\
=3
4c\
4d\
=4
4d\
16c\LK
8.c\J
=5!|:
12c\L
12c\
12A\J
4G\
=6||
*M3/4
4G^\
4E\
12A\L
12G\
12G\J
=7
8.G^\L
16G\Jk
4G\
8E\L
8E\J
=8
4G^\
4G\
12A\L
12G\
12G\J
=9
8.G^\L
16G\Jk
4G\
8E\L
8E\J
=10
4G\
2G\
=11
16d\LK
8.d\J
4d\
16c\LK
8.c\J
==:|!
*-
